X:1
T:WiS 103 When Jesus Wept
T:Worship in Song
%%score ( 1 2 3 ) 4 5 6
L:1/8
Q:1/4=160
M:3/2
K:G
V:1 treble nm="Grand Piano, WiS 103 When Jesus Wept"
V:2 treble 
V:3 treble 
V:4 treble nm="Grand Piano"
V:5 treble nm="Grand Piano"
V:6 treble nm="Grand Piano"
V:1
 E4 B8 | A4 z4 d4 | z4 B4 z4 | F4 E8 | E4 E8 | z4 .G8 | E4 E8 | B,4 E8 | B4 e4 B4 | d4 z4 A4 | %10
w: 103~When~Jesus~Wept *||||||||||
 B4 B8 | B4 B8 | z4 B4 z4 | F4 z4 c4 | B4 z4 E4 | D4 E8 |] %16
w: ||||||
V:2
 x12 | z4 z2 z c- c/ z/ z z2 | z4 z2 z A- A/ z/ z z2 | x12 | x12 | D4 z4 F4 | x12 | x12 | x12 | %9
 z4 .G8 | x12 | x12 | z4 z2 z A- A/ z/ z z2 | z4 .G8 | z4 G4 z4 | x12 |] %16
V:3
 x12 | z4 B4 z4 | G4 z4 G4 | x12 | x12 | x12 | x12 | x12 | x12 | x12 | x12 | x12 | G4 z4 G4 | x12 | %14
 z4 z2 z F- F/ z/ z z2 | x12 |] %16
V:4
 G4 B3 A G4 | F4 G4 c4 | B4 G3 F E4 | D4 E8 | E4 B8 | A4 B3 c d4 | G4 B3 A G4 | F4 E8 | E4 E8 | %9
 D4 G4 F4 | E4 E8 | B,4 E8 | B4 e4 B4 | d4 G4 A4 | B4 B8 | B4 B8 |] %16
V:5
 B4 e4 B4 | d4 G4 A4 | B4 B8 | B4 B8 | G4 B3 A G4 | F4 G4 c4 | B4 G3 F E4 | D4 E8 | E4 B8 | %9
 A4 B3 c d4 | G4 B3 A G4 | F4 E8 | E4 E8 | D4 G4 F4 | E4 E8 | B,4 E8 |] %16
V:6
 E4 E8 | D4 G4 F4 | E4 E8 | B,4 E8 | B4 e4 B4 | d4 G4 A4 | B4 B8 | B4 B8 | G4 B3 A G4 | F4 G4 c4 | %10
 B4 G3 F E4 | D4 E8 | E4 B8 | A4 B3 c d4 | G4 B3 A G4 | F4 E8 |] %16

